img/icon-nat-3.svg

<svg xmlns="http://www.w3.org/2000/svg" width="60" height="58" viewBox="0 0 60 58">
  <g fill="none">
    <polygon fill="#233651" points="23.075 45.992 36.926 45.992 36.926 56.422 23.075 56.422"/>
    <path fill="#233651" d="M13.0997872,57.7764878 L16.4596085,57.7764878 L24.5368851,57.7764878 L34.3062894,57.7764878 L42.7479702,57.7764878 C44.1110809,57.7764878 45.4769298,57.8096433 46.8400404,57.7764878 L46.9003792,57.7764878 C47.6189366,57.7764878 48.3046345,57.1410059 48.2717047,56.3950268 C48.2387918,55.6490195 47.6683102,55.0135659 46.9003792,55.0135659 L43.5405579,55.0135659 L35.4632813,55.0135659 L25.693877,55.0135659 L17.2521962,55.0135659 C15.8890856,55.0135659 14.5232366,54.9804104 13.160126,55.0135659 L13.0997872,55.0135659 C12.3812298,55.0135659 11.6955319,55.6490478 11.7284617,56.3950268 C11.7613746,57.1410341 12.3318562,57.7764878 13.0997872,57.7764878 Z"/>
    <path fill="#E9E7F5" d="M60.0007859,4.71394151 C59.9702463,2.627922 58.580686,0.652385415 56.6414617,0.307002488 C56.3055292,0.246217073 55.9797864,0.224112 55.643867,0.224112 L53.6460718,0.224112 L49.8846345,0.224112 L44.7743075,0.224112 L38.7478249,0.224112 L32.1616938,0.224112 L25.4433058,0.224112 L19.0045466,0.224112 L13.273264,0.224112 L8.60322855,0.224112 L5.42710934,0.224112 C4.99955483,0.224112 4.5821639,0.218586439 4.15464196,0.224112 C2.57674594,0.246215659 1.04471633,1.24088029 0.400827379,2.82958517 C0.125967651,3.50650883 0.0063566297,4.21104615 0.0063566297,4.94326078 L0.0063566297,7.76149493 L0.0063566297,12.9889925 L0.0063566297,19.730573 L0.0063566297,27.0024998 L0.0063566297,33.860151 L0.0063566297,39.3225486 L0.0063566297,42.4944413 C0.0063566297,42.6933742 0.0012663693,42.9033554 0.0114462386,43.1022954 C0.138692976,45.3734198 1.72166428,47.1224027 3.79073493,47.379371 C4.24373748,47.4346302 4.70689059,47.4014747 5.15995178,47.4014747 L8.12485093,47.4014747 L12.6370902,47.4014747 L18.2563781,47.4014747 L24.6391724,47.4014747 L31.3451816,47.4014747 L37.9365248,47.4014747 L44.0750023,47.4014747 L49.3227331,47.4014747 L53.2674406,47.4014747 L55.50193,47.4014747 L55.8582287,47.4014747 C57.6346403,47.379371 59.1463428,46.1719454 59.7647576,44.384343 C60.0701537,43.5057137 59.993803,42.5110844 59.993803,41.5882479 L59.993803,37.4106918 L59.993803,31.2713918 L59.993803,24.1373918 L59.993803,16.994904 L59.993803,10.722982 L59.993803,6.31604298 L59.993803,4.7273381 C59.993803,4.0034698 60.0135556,5.48754834 60.0007859,4.71394151 Z"/>
    <path fill="#BAC2CD" d="M21.3333333,37.0520496 L21.3333333,37.2476764 C21.3980014,37.1818848 21.4624436,37.1163228 21.5256192,37.0520496 L21.3333333,37.0520496 Z M16.6666667,37.2438731 L16.6666667,37.0520496 L16.4781192,37.0520496 L16.6666667,37.2438731 Z M16.9519338,26.0142816 C16.9836812,26.0049642 17.0170136,26 17.0513517,26 L20.9466876,26 C20.9849573,26 21.021942,26.0061272 21.0568693,26.0175236 L21.0568693,25.9022229 L21.0568938,25.9021071 C21.0568938,25.2878622 21.9943749,25.2878622 22,25.8963843 L22,27.3366002 L22,33.5839497 L22,37.5231055 C22,37.7806273 21.7843739,38 21.5312501,38 L20.8937606,38 L16.4837501,38 C16.2306263,38 16.0150001,37.7806273 16.0150001,37.5231055 L16.0150001,37.4811389 C15.9812498,36.5540719 16.0150001,35.6250515 16.0150001,34.699889 L16.0150001,29.8832329 L16.0150001,26.2874299 C16.0150001,25.8067067 16.0225362,25.3164463 16.5437694,25.081813 C16.7481251,24.9864351 16.9637512,25.0016957 17.1850029,25.0016957 L18.0943651,25.0016957 L20.4043706,25.0016957 C20.6200159,25.0016957 20.835642,24.9978803 21.0512681,25.0016957 C21.581871,25.0093627 21.9568743,25.3679517 21.9943744,25.9020993 C22.0131136,26.1596212 21.7637482,26.3789938 21.5256245,26.3789938 C21.4514963,26.3789938 21.3837629,26.3619887 21.3242048,26.3318897 C21.2958226,26.1904626 21.2020515,26.0749153 21.0792675,26.0256618 C21.0675568,25.9860562 21.0599688,25.9445972 21.0568746,25.9020993 C21.0624997,26.0070175 21.150625,25.9249913 21.0606248,25.959328 C20.979999,25.9784041 20.8674963,25.959328 20.7887474,25.959328 L19.7612569,25.959328 L17.3649952,25.959328 C17.2937438,25.959328 16.9524966,26.0070175 16.8999941,25.959328 C16.956244,26.0127403 16.924369,25.8296114 16.9468691,25.9784041 C16.9486971,25.9903068 16.9503826,26.0022675 16.9519338,26.0142816 Z"/>
    <path fill="#73839B" d="M32.3333333,37.0840927 L32.3333333,37.2655263 L32.5198161,37.0840927 L32.3333333,37.0840927 Z M27.6666667,37.2629715 L27.6666667,37.0840927 L27.4828098,37.0840927 C27.543239,37.1428857 27.6048295,37.2028087 27.6666666,37.2629715 Z M27.9655533,20.0100977 C27.9931685,20.0034888 28.02189,20 28.0513517,20 L31.9466876,20 C31.9831985,19.9990886 32.0185397,20.0036542 32.0520407,20.0129865 L32.0520407,19.8735351 L32.0519847,19.8737672 C32.0519847,19.2875928 32.9875259,19.2875928 32.9875259,19.8755876 L32.9875259,19.9083558 C33.0155926,20.6219933 32.9875259,21.3465359 32.9875259,22.0601268 L32.9875259,26.4619553 L32.9875259,31.5738794 L32.9875259,35.7827233 L32.9875259,37.5448901 C32.9875259,37.7906483 32.7723481,38 32.5197505,38 L31.8835863,38 L27.4827441,38 C27.2301466,38 27.0149687,37.7906483 27.0149687,37.5448901 L27.0149687,37.4939153 C26.9812891,36.3652282 27.0149687,35.2274534 27.0149687,34.0987663 L27.0149687,27.8035825 L27.0149687,21.9637137 L27.0149687,20.2561195 C27.0149687,20.1414286 27.0112268,20.0231026 27.0149687,19.9102339 C27.0280455,19.4059574 27.3966864,19.0327683 27.916836,19.0145637 C28.7831613,18.9817954 29.6532227,19.0145637 30.5139436,19.0145637 L31.857404,19.0145637 C31.9397303,19.0145637 32.0201885,19.0109225 32.1043876,19.0145637 C32.6096115,19.0327856 32.9501517,19.3913985 32.9875738,19.8738367 C33.0062741,20.1195949 32.7574271,20.3289466 32.5197984,20.3289466 C32.4447674,20.3289466 32.3763015,20.3122512 32.316255,20.2827553 C32.2814569,20.1625516 32.1956057,20.0668645 32.08555,20.0241318 C32.0674454,19.9767938 32.0560052,19.9261397 32.052023,19.8738367 C32.0576369,19.9430133 32.1455771,19.9193477 32.0015025,19.9193477 L29.2696992,19.9193477 L28.0628506,19.9193477 C28.0310448,19.9193477 27.9056786,19.9193477 27.9094211,19.9229888 C27.9225189,19.935732 27.9412297,19.8683752 27.9505852,19.8774778 C27.9543276,19.8829388 27.9468432,19.9011435 27.9505852,19.9047841 C27.9619057,19.9323189 27.9656162,19.9695204 27.9655533,20.0100977 Z"/>
    <path fill="#233651" d="M43.3333333,11.2833088 L43.3333333,10.7162448 L43.333147,10.7162448 C43.333147,10.4477777 43.2538044,10.2132736 43.1369896,10.0906479 C43.3585204,9.51970565 43.9980622,9.67084967 43.9934158,10.5440799 L43.9934158,13.8134708 L43.9934158,28.1659145 L43.9934158,37.1826439 C43.9934158,37.6240142 43.7780263,38 43.5251803,38 L42.8883903,38 L38.483219,38 C38.230373,38 38.0149835,37.6240142 38.0149835,37.1826439 L38.0149835,37.1009075 C37.9812707,35.2798177 38.0149835,33.442407 38.0149835,31.618053 L38.0149835,21.5484093 L38.0149835,12.8254581 L38.0149835,10.7330211 C38.0149835,10.268793 38.0749178,9.81107664 38.2771984,9.45797372 C38.5525127,8.97409349 38.8896407,9 39.2417571,9 L41.9163134,9 L42.9689036,9 C43.5214068,9 43.9578014,9.52335819 43.9990065,10.5434631 C44.0177252,10.9848333 43.7686334,11.3608192 43.5307709,11.3608192 C43.45828,11.3608192 43.3919111,11.3328858 43.3333333,11.2833088 Z M43.3333333,36.3658151 L43.3333333,36.7104614 L43.5307695,36.3658151 L43.3333333,36.3658151 Z M43.1674665,37 L43.062534,37 L43.062534,37.1831712 L43.1674665,37 Z M38.9570438,37 L38.8521112,37 L38.9570438,37.1831712 L38.9570438,37 Z M38.6666667,36.6762863 L38.6666667,36.3658151 L38.4888082,36.3658151 L38.6666667,36.6762863 Z"/>
    <path fill="#FFF" d="M10.6914894,38.9137561 L18.0476809,38.9137561 L25.9606596,38.9137561 L33.4067234,38.9137561 L40.6252979,38.9137561 L48.8121064,38.9137561 L49.3003028,38.9137561 C50.0188602,38.9137561 50.7045581,38.2782741 50.6716283,37.5322951 C50.6386985,36.7863161 50.0682338,36.1508341 49.3003028,36.1508341 L41.9827283,36.1508341 L33.8317283,36.1508341 L26.174324,36.1508341 L19.4053921,36.1508341 L11.1827751,36.1508341 L10.6836045,36.1508341 C9.96504702,36.1508341 9.27934915,36.7863161 9.31227894,37.5322951 C9.3534194,38.2838195 9.92389532,38.9137561 10.6918194,38.9137561 L10.6914894,38.9137561 Z"/>
  </g>
</svg>

<svg xmlns="http://www.w3.org/2000/svg" width="60" height="58"><g fill="none"><path fill="#233651" d="M23.075 45.992L36.926 45.992 36.926 56.422 23.075 56.422z"/><path fill="#233651" d="M13.1 57.776H42.748c1.363 0 2.729.034 4.092 0h.06c.719 0 1.405-.635 1.372-1.381-.033-.746-.604-1.381-1.372-1.381H17.253c-1.364 0-2.73-.034-4.093 0h-.06c-.719 0-1.404.635-1.372 1.381.033.746.604 1.381 1.372 1.381z"/><path fill="#E9E7F5" d="M60 4.714C59.97 2.628 58.58.652 56.642.307a5.525 5.525 0 0 0-.997-.083H5.427c-.427 0-.845-.005-1.272 0C2.577.246 1.045 1.241.4 2.83a5.55 5.55 0 0 0-.395 2.113v37.551c0 .2-.005.41.005.608.128 2.271 1.71 4.02 3.78 4.277.453.056.916.022 1.369.022h50.698c1.777-.022 3.288-1.23 3.907-3.017.305-.878.229-1.873.229-2.796V4.727c0-.724.02.76.007-.013z"/><path fill="#BAC2CD" d="M21.333 37.052v.196l.193-.196h-.193zm-4.666.192v-.192h-.189l.189.192zm.285-11.23a.352.352 0 0 1 .1-.014h3.895c.038 0 .075.006.11.018v-.116c0-.614.937-.614.943-.006v11.628a.48.48 0 0 1-.469.476H16.484a.48.48 0 0 1-.469-.477v-.042c-.034-.927 0-1.856 0-2.781v-8.413c0-.48.008-.97.529-1.205.204-.096.42-.08.641-.08h3.22c.215 0 .43-.004.646 0 .53.007.906.366.943.9.02.258-.23.477-.468.477a.443.443 0 0 1-.202-.047.415.415 0 0 0-.245-.306.586.586 0 0 1-.022-.124c.005.105.094.023.004.057-.081.02-.194 0-.272 0h-3.424c-.071 0-.413.048-.465 0 .056.054.024-.13.047.02l.005.035z"/><path fill="#73839B" d="M32.333 37.084v.182l.187-.182h-.187zm-4.666.179v-.179h-.184l.184.179zm.299-17.253a.368.368 0 0 1 .085-.01h3.896c.036 0 .072.004.105.013v-.14c0-.585.936-.585.936.003v.032c.028.714 0 1.439 0 2.152v15.485a.469.469 0 0 1-.468.455h-5.037a.469.469 0 0 1-.468-.455v-.051c-.034-1.129 0-2.267 0-3.395V20.256c0-.115-.004-.233 0-.346.013-.504.382-.877.902-.895.866-.033 1.736 0 2.597 0h1.343c.083 0 .163-.004.247 0 .506.018.846.376.884.859.018.246-.23.455-.468.455a.458.458 0 0 1-.204-.046.392.392 0 0 0-.23-.259.534.534 0 0 1-.034-.15c.006.069.094.045-.05.045h-3.939a1.7 1.7 0 0 0-.154.004c.014.013.032-.055.042-.046.003.006-.004.024 0 .028a.288.288 0 0 1 .015.105z"/><path fill="#233651" d="M43.333 11.283v-.567c0-.268-.08-.503-.196-.625.222-.571.861-.42.856.453v26.639c0 .441-.215.817-.468.817h-5.042c-.253 0-.468-.376-.468-.817V37.1c-.034-1.821 0-3.659 0-5.483V10.733c0-.464.06-.922.262-1.275.276-.484.613-.458.965-.458h3.727c.552 0 .989.523 1.03 1.543.019.442-.23.818-.468.818a.302.302 0 0 1-.198-.078zm0 25.083v.344l.198-.344h-.198zm-.166.634h-.104v.183l.104-.183zm-4.21 0h-.105l.105.183V37zm-.29-.324v-.31h-.178l.178.31z"/><path fill="#FFF" d="M10.691 38.914H49.3c.719 0 1.405-.636 1.372-1.382-.033-.746-.604-1.381-1.372-1.381H10.683c-.718 0-1.404.635-1.37 1.381.04.752.61 1.382 1.379 1.382z"/></g></svg>
